X: 261
T: Polonäs, sexdregasamlingen del 1 nr 44
B: Sexdregasamlingen del 1 nr 4
O: Sexdrega, Västergötland
R: Slängpolska
S: efter Johannes Bryngelsson
Z: 2008-05-31 av Nils L
M: 3/4
L: 1/16
K: G
g2bg g2bg g2bg | a2gf g2fe f2ed | g2>b2 g2>b2 g2>b2 | b2a2 a2g2 g2d2 |
d2ef g2ec B2G2 | cBAF G4 G,4 :: G2B2 G2B2 G2B2 | G2FG A2AG F2D2 |
G2B2 G2B2 G2B2 | G2FG A2AG F2D2 | d2ef g2ec B2AG | A2GF G4 G,4 :|
(:musicend:)

(:music:)
